X:762
T:The Muffled Drum
S:Bruce & Emmett's Drummers and Fifers Guide (1862), p. 76
M:2/4
L:1/8
Q:1/4=100
K:G
%%MIDI program 72
%%MIDI transpose 8
%%MIDI ratio 3 1
d|.d(g/f/ g).B|B(d/^c/ d)G|F/A/c/e/ d>c|B/A/B/c/ dz/d/|d(g/f/ g)B|B(d/^c/ d)G|
F/A/c/e/ dF|G2 z::d|d(f/^e/ f)d|d(g/f/ g)d|d(a/^g/ a)d|d(b/a/ b)d|
d(g/f/ g)B|B(d/^c/ d)G|F/A/c/e/ dF|G2-G::d|(^c/d/c/d/) ef|(a/g/f/g/) dB|
d/c/B/c/ AF|G/F/G/B/ dz/d/|(^c/d/c/d/) ef|a/g/f/g/ dB|d/c/B/c/ AF|GBG:|
